icons/modern/star.svg

<svg width="32" height="32" viewBox="0 0 32 32" fill="none" xmlns="http://www.w3.org/2000/svg">
<g filter="url(#filter0_iii_18_14837)">
<path d="M18.6046 3.74448L20.8077 8.36425C21.1488 9.05025 21.771 9.5326 22.4934 9.63978L27.4208 10.3365C29.9595 10.7117 30.9171 13.4375 28.9483 15.4219L25.4952 18.9844C24.9333 19.5417 24.6724 20.3671 24.8128 21.171L25.5889 26.2344C26.0304 28.8605 23.8186 30.7236 21.5809 29.5231L17.0454 27.1114C16.4133 26.7791 15.6708 26.7791 15.0386 27.1114L10.5031 29.5231C8.26548 30.7128 5.91705 28.9062 6.5733 26.1719L7.33893 21.2188C7.47941 20.4148 7.21852 19.5895 6.6566 19.0322L3.13576 15.3438C1.15142 13.3828 2.12453 10.7117 4.66319 10.3365L9.40939 9.63978C10.1319 9.5326 10.9609 9.06097 11.2921 8.36425L13.5397 3.74448C14.6836 1.41851 17.4707 1.41851 18.6046 3.74448Z" fill="url(#paint0_radial_18_14837)"/>
<path d="M18.6046 3.74448L20.8077 8.36425C21.1488 9.05025 21.771 9.5326 22.4934 9.63978L27.4208 10.3365C29.9595 10.7117 30.9171 13.4375 28.9483 15.4219L25.4952 18.9844C24.9333 19.5417 24.6724 20.3671 24.8128 21.171L25.5889 26.2344C26.0304 28.8605 23.8186 30.7236 21.5809 29.5231L17.0454 27.1114C16.4133 26.7791 15.6708 26.7791 15.0386 27.1114L10.5031 29.5231C8.26548 30.7128 5.91705 28.9062 6.5733 26.1719L7.33893 21.2188C7.47941 20.4148 7.21852 19.5895 6.6566 19.0322L3.13576 15.3438C1.15142 13.3828 2.12453 10.7117 4.66319 10.3365L9.40939 9.63978C10.1319 9.5326 10.9609 9.06097 11.2921 8.36425L13.5397 3.74448C14.6836 1.41851 17.4707 1.41851 18.6046 3.74448Z" fill="url(#paint1_radial_18_14837)"/>
</g>
<path d="M18.6046 3.74448L20.8077 8.36425C21.1488 9.05025 21.771 9.5326 22.4934 9.63978L27.4208 10.3365C29.9595 10.7117 30.9171 13.4375 28.9483 15.4219L25.4952 18.9844C24.9333 19.5417 24.6724 20.3671 24.8128 21.171L25.5889 26.2344C26.0304 28.8605 23.8186 30.7236 21.5809 29.5231L17.0454 27.1114C16.4133 26.7791 15.6708 26.7791 15.0386 27.1114L10.5031 29.5231C8.26548 30.7128 5.91705 28.9062 6.5733 26.1719L7.33893 21.2188C7.47941 20.4148 7.21852 19.5895 6.6566 19.0322L3.13576 15.3438C1.15142 13.3828 2.12453 10.7117 4.66319 10.3365L9.40939 9.63978C10.1319 9.5326 10.9609 9.06097 11.2921 8.36425L13.5397 3.74448C14.6836 1.41851 17.4707 1.41851 18.6046 3.74448Z" fill="url(#paint2_radial_18_14837)"/>
<path d="M18.6046 3.74448L20.8077 8.36425C21.1488 9.05025 21.771 9.5326 22.4934 9.63978L27.4208 10.3365C29.9595 10.7117 30.9171 13.4375 28.9483 15.4219L25.4952 18.9844C24.9333 19.5417 24.6724 20.3671 24.8128 21.171L25.5889 26.2344C26.0304 28.8605 23.8186 30.7236 21.5809 29.5231L17.0454 27.1114C16.4133 26.7791 15.6708 26.7791 15.0386 27.1114L10.5031 29.5231C8.26548 30.7128 5.91705 28.9062 6.5733 26.1719L7.33893 21.2188C7.47941 20.4148 7.21852 19.5895 6.6566 19.0322L3.13576 15.3438C1.15142 13.3828 2.12453 10.7117 4.66319 10.3365L9.40939 9.63978C10.1319 9.5326 10.9609 9.06097 11.2921 8.36425L13.5397 3.74448C14.6836 1.41851 17.4707 1.41851 18.6046 3.74448Z" fill="url(#paint3_radial_18_14837)"/>
<path d="M18.6046 3.74448L20.8077 8.36425C21.1488 9.05025 21.771 9.5326 22.4934 9.63978L27.4208 10.3365C29.9595 10.7117 30.9171 13.4375 28.9483 15.4219L25.4952 18.9844C24.9333 19.5417 24.6724 20.3671 24.8128 21.171L25.5889 26.2344C26.0304 28.8605 23.8186 30.7236 21.5809 29.5231L17.0454 27.1114C16.4133 26.7791 15.6708 26.7791 15.0386 27.1114L10.5031 29.5231C8.26548 30.7128 5.91705 28.9062 6.5733 26.1719L7.33893 21.2188C7.47941 20.4148 7.21852 19.5895 6.6566 19.0322L3.13576 15.3438C1.15142 13.3828 2.12453 10.7117 4.66319 10.3365L9.40939 9.63978C10.1319 9.5326 10.9609 9.06097 11.2921 8.36425L13.5397 3.74448C14.6836 1.41851 17.4707 1.41851 18.6046 3.74448Z" fill="url(#paint4_radial_18_14837)"/>
<path d="M18.6046 3.74448L20.8077 8.36425C21.1488 9.05025 21.771 9.5326 22.4934 9.63978L27.4208 10.3365C29.9595 10.7117 30.9171 13.4375 28.9483 15.4219L25.4952 18.9844C24.9333 19.5417 24.6724 20.3671 24.8128 21.171L25.5889 26.2344C26.0304 28.8605 23.8186 30.7236 21.5809 29.5231L17.0454 27.1114C16.4133 26.7791 15.6708 26.7791 15.0386 27.1114L10.5031 29.5231C8.26548 30.7128 5.91705 28.9062 6.5733 26.1719L7.33893 21.2188C7.47941 20.4148 7.21852 19.5895 6.6566 19.0322L3.13576 15.3438C1.15142 13.3828 2.12453 10.7117 4.66319 10.3365L9.40939 9.63978C10.1319 9.5326 10.9609 9.06097 11.2921 8.36425L13.5397 3.74448C14.6836 1.41851 17.4707 1.41851 18.6046 3.74448Z" fill="url(#paint5_radial_18_14837)"/>
<defs>
<filter id="filter0_iii_18_14837" x="0.827209" y="1.5" width="30.6728" height="29.6455" filterUnits="userSpaceOnUse" color-interpolation-filters="sRGB">
<feFlood flood-opacity="0" result="BackgroundImageFix"/>
<feBlend mode="normal" in="SourceGraphic" in2="BackgroundImageFix" result="shape"/>
<feColorMatrix in="SourceAlpha" type="matrix" values="0 0 0 0 0 0 0 0 0 0 0 0 0 0 0 0 0 0 127 0" result="hardAlpha"/>
<feOffset dy="-0.5"/>
<feGaussianBlur stdDeviation="1.5"/>
<feComposite in2="hardAlpha" operator="arithmetic" k2="-1" k3="1"/>
<feColorMatrix type="matrix" values="0 0 0 0 0.772549 0 0 0 0 0.494118 0 0 0 0 0.282353 0 0 0 1 0"/>
<feBlend mode="normal" in2="shape" result="effect1_innerShadow_18_14837"/>
<feColorMatrix in="SourceAlpha" type="matrix" values="0 0 0 0 0 0 0 0 0 0 0 0 0 0 0 0 0 0 127 0" result="hardAlpha"/>
<feOffset dx="-1.25" dy="1.25"/>
<feGaussianBlur stdDeviation="0.75"/>
<feComposite in2="hardAlpha" operator="arithmetic" k2="-1" k3="1"/>
<feColorMatrix type="matrix" values="0 0 0 0 1 0 0 0 0 0.952941 0 0 0 0 0.286275 0 0 0 1 0"/>
<feBlend mode="normal" in2="effect1_innerShadow_18_14837" result="effect2_innerShadow_18_14837"/>
<feColorMatrix in="SourceAlpha" type="matrix" values="0 0 0 0 0 0 0 0 0 0 0 0 0 0 0 0 0 0 127 0" result="hardAlpha"/>
<feOffset dx="1.5" dy="-0.5"/>
<feGaussianBlur stdDeviation="0.75"/>
<feComposite in2="hardAlpha" operator="arithmetic" k2="-1" k3="1"/>
<feColorMatrix type="matrix" values="0 0 0 0 0.698039 0 0 0 0 0.537255 0 0 0 0 0.192157 0 0 0 1 0"/>
<feBlend mode="normal" in2="effect2_innerShadow_18_14837" result="effect3_innerShadow_18_14837"/>
</filter>
<radialGradient id="paint0_radial_18_14837" cx="0" cy="0" r="1" gradientUnits="userSpaceOnUse" gradientTransform="translate(24.5421 8.96877) rotate(132.939) scale(19.9803 19.7731)">
<stop stop-color="#FAC632"/>
<stop offset="1" stop-color="#F7C632"/>
</radialGradient>
<radialGradient id="paint1_radial_18_14837" cx="0" cy="0" r="1" gradientUnits="userSpaceOnUse" gradientTransform="translate(16.0386 15.9478) rotate(90) scale(13.9478 13.9614)">
<stop stop-color="#DDBA38"/>
<stop offset="1" stop-color="#DDBA38" stop-opacity="0"/>
</radialGradient>
<radialGradient id="paint2_radial_18_14837" cx="0" cy="0" r="1" gradientUnits="userSpaceOnUse" gradientTransform="translate(7.06005 10.0815) rotate(74.0546) scale(2.26515 7.5594)">
<stop stop-color="#DDBA38"/>
<stop offset="1" stop-color="#DDBA38" stop-opacity="0"/>
</radialGradient>
<radialGradient id="paint3_radial_18_14837" cx="0" cy="0" r="1" gradientUnits="userSpaceOnUse" gradientTransform="translate(2.07721 11.5205) rotate(16.0828) scale(3.93102 3.93486)">
<stop stop-color="#B5953A"/>
<stop offset="1" stop-color="#B5953A" stop-opacity="0"/>
</radialGradient>
<radialGradient id="paint4_radial_18_14837" cx="0" cy="0" r="1" gradientUnits="userSpaceOnUse" gradientTransform="translate(8.88802 30.8113) rotate(-58.4957) scale(2.82823 2.83099)">
<stop stop-color="#C47E42"/>
<stop offset="1" stop-color="#C47E42" stop-opacity="0"/>
</radialGradient>
<radialGradient id="paint5_radial_18_14837" cx="0" cy="0" r="1" gradientUnits="userSpaceOnUse" gradientTransform="translate(31.0569 11.6761) rotate(150.751) scale(2.2288 2.93061)">
<stop stop-color="#FFF246"/>
<stop offset="1" stop-color="#FFF246" stop-opacity="0"/>
</radialGradient>
</defs>
</svg>

<svg width="32" height="32" fill="none" xmlns="http://www.w3.org/2000/svg"><g filter="url(#a)"><path d="m18.605 3.744 2.203 4.62c.34.686.963 1.169 1.685 1.276l4.928.696c2.538.376 3.496 3.101 1.527 5.086l-3.453 3.562a2.49 2.49 0 0 0-.682 2.187l.776 5.063c.441 2.626-1.77 4.49-4.008 3.29l-4.536-2.413a2.144 2.144 0 0 0-2.006 0l-4.536 2.412c-2.238 1.19-4.586-.617-3.93-3.351l.766-4.953a2.49 2.49 0 0 0-.682-2.187l-3.521-3.688c-1.985-1.961-1.011-4.632 1.527-5.008L9.41 9.64c.723-.107 1.552-.579 1.883-1.276l2.248-4.62c1.144-2.325 3.93-2.325 5.065 0Z" fill="url(#b)"/><path d="m18.605 3.744 2.203 4.62c.34.686.963 1.169 1.685 1.276l4.928.696c2.538.376 3.496 3.101 1.527 5.086l-3.453 3.562a2.49 2.49 0 0 0-.682 2.187l.776 5.063c.441 2.626-1.77 4.49-4.008 3.29l-4.536-2.413a2.144 2.144 0 0 0-2.006 0l-4.536 2.412c-2.238 1.19-4.586-.617-3.93-3.351l.766-4.953a2.49 2.49 0 0 0-.682-2.187l-3.521-3.688c-1.985-1.961-1.011-4.632 1.527-5.008L9.41 9.64c.723-.107 1.552-.579 1.883-1.276l2.248-4.62c1.144-2.325 3.93-2.325 5.065 0Z" fill="url(#c)"/></g><path d="m18.605 3.744 2.203 4.62c.34.686.963 1.169 1.685 1.276l4.928.696c2.538.376 3.496 3.101 1.527 5.086l-3.453 3.562a2.49 2.49 0 0 0-.682 2.187l.776 5.063c.441 2.626-1.77 4.49-4.008 3.29l-4.536-2.413a2.144 2.144 0 0 0-2.006 0l-4.536 2.412c-2.238 1.19-4.586-.617-3.93-3.351l.766-4.953a2.49 2.49 0 0 0-.682-2.187l-3.521-3.688c-1.985-1.961-1.011-4.632 1.527-5.008L9.41 9.64c.723-.107 1.552-.579 1.883-1.276l2.248-4.62c1.144-2.325 3.93-2.325 5.065 0Z" fill="url(#d)"/><path d="m18.605 3.744 2.203 4.62c.34.686.963 1.169 1.685 1.276l4.928.696c2.538.376 3.496 3.101 1.527 5.086l-3.453 3.562a2.49 2.49 0 0 0-.682 2.187l.776 5.063c.441 2.626-1.77 4.49-4.008 3.29l-4.536-2.413a2.144 2.144 0 0 0-2.006 0l-4.536 2.412c-2.238 1.19-4.586-.617-3.93-3.351l.766-4.953a2.49 2.49 0 0 0-.682-2.187l-3.521-3.688c-1.985-1.961-1.011-4.632 1.527-5.008L9.41 9.64c.723-.107 1.552-.579 1.883-1.276l2.248-4.62c1.144-2.325 3.93-2.325 5.065 0Z" fill="url(#e)"/><path d="m18.605 3.744 2.203 4.62c.34.686.963 1.169 1.685 1.276l4.928.696c2.538.376 3.496 3.101 1.527 5.086l-3.453 3.562a2.49 2.49 0 0 0-.682 2.187l.776 5.063c.441 2.626-1.77 4.49-4.008 3.29l-4.536-2.413a2.144 2.144 0 0 0-2.006 0l-4.536 2.412c-2.238 1.19-4.586-.617-3.93-3.351l.766-4.953a2.49 2.49 0 0 0-.682-2.187l-3.521-3.688c-1.985-1.961-1.011-4.632 1.527-5.008L9.41 9.64c.723-.107 1.552-.579 1.883-1.276l2.248-4.62c1.144-2.325 3.93-2.325 5.065 0Z" fill="url(#f)"/><path d="m18.605 3.744 2.203 4.62c.34.686.963 1.169 1.685 1.276l4.928.696c2.538.376 3.496 3.101 1.527 5.086l-3.453 3.562a2.49 2.49 0 0 0-.682 2.187l.776 5.063c.441 2.626-1.77 4.49-4.008 3.29l-4.536-2.413a2.144 2.144 0 0 0-2.006 0l-4.536 2.412c-2.238 1.19-4.586-.617-3.93-3.351l.766-4.953a2.49 2.49 0 0 0-.682-2.187l-3.521-3.688c-1.985-1.961-1.011-4.632 1.527-5.008L9.41 9.64c.723-.107 1.552-.579 1.883-1.276l2.248-4.62c1.144-2.325 3.93-2.325 5.065 0Z" fill="url(#g)"/><defs><radialGradient id="b" cx="0" cy="0" r="1" gradientUnits="userSpaceOnUse" gradientTransform="rotate(132.939 10.318 9.828) scale(19.9803 19.7731)"><stop stop-color="#FAC632"/><stop offset="1" stop-color="#F7C632"/></radialGradient><radialGradient id="c" cx="0" cy="0" r="1" gradientUnits="userSpaceOnUse" gradientTransform="matrix(0 13.9478 -13.9614 0 16.039 15.948)"><stop stop-color="#DDBA38"/><stop offset="1" stop-color="#DDBA38" stop-opacity="0"/></radialGradient><radialGradient id="d" cx="0" cy="0" r="1" gradientUnits="userSpaceOnUse" gradientTransform="matrix(.62228 2.178 -7.26854 2.07673 7.06 10.082)"><stop stop-color="#DDBA38"/><stop offset="1" stop-color="#DDBA38" stop-opacity="0"/></radialGradient><radialGradient id="e" cx="0" cy="0" r="1" gradientUnits="userSpaceOnUse" gradientTransform="matrix(3.77717 1.089 -1.09006 3.78086 2.077 11.52)"><stop stop-color="#B5953A"/><stop offset="1" stop-color="#B5953A" stop-opacity="0"/></radialGradient><radialGradient id="f" cx="0" cy="0" r="1" gradientUnits="userSpaceOnUse" gradientTransform="rotate(-58.496 31.955 7.47) scale(2.82823 2.83099)"><stop stop-color="#C47E42"/><stop offset="1" stop-color="#C47E42" stop-opacity="0"/></radialGradient><radialGradient id="g" cx="0" cy="0" r="1" gradientUnits="userSpaceOnUse" gradientTransform="rotate(150.751 14.005 9.89) scale(2.2288 2.93061)"><stop stop-color="#FFF246"/><stop offset="1" stop-color="#FFF246" stop-opacity="0"/></radialGradient><filter id="a" x=".827" y="1.5" width="30.673" height="29.645" filterUnits="userSpaceOnUse" color-interpolation-filters="sRGB"><feFlood flood-opacity="0" result="BackgroundImageFix"/><feBlend in="SourceGraphic" in2="BackgroundImageFix" result="shape"/><feColorMatrix in="SourceAlpha" values="0 0 0 0 0 0 0 0 0 0 0 0 0 0 0 0 0 0 127 0" result="hardAlpha"/><feOffset dy="-.5"/><feGaussianBlur stdDeviation="1.5"/><feComposite in2="hardAlpha" operator="arithmetic" k2="-1" k3="1"/><feColorMatrix values="0 0 0 0 0.772549 0 0 0 0 0.494118 0 0 0 0 0.282353 0 0 0 1 0"/><feBlend in2="shape" result="effect1_innerShadow_18_14837"/><feColorMatrix in="SourceAlpha" values="0 0 0 0 0 0 0 0 0 0 0 0 0 0 0 0 0 0 127 0" result="hardAlpha"/><feOffset dx="-1.25" dy="1.25"/><feGaussianBlur stdDeviation=".75"/><feComposite in2="hardAlpha" operator="arithmetic" k2="-1" k3="1"/><feColorMatrix values="0 0 0 0 1 0 0 0 0 0.952941 0 0 0 0 0.286275 0 0 0 1 0"/><feBlend in2="effect1_innerShadow_18_14837" result="effect2_innerShadow_18_14837"/><feColorMatrix in="SourceAlpha" values="0 0 0 0 0 0 0 0 0 0 0 0 0 0 0 0 0 0 127 0" result="hardAlpha"/><feOffset dx="1.5" dy="-.5"/><feGaussianBlur stdDeviation=".75"/><feComposite in2="hardAlpha" operator="arithmetic" k2="-1" k3="1"/><feColorMatrix values="0 0 0 0 0.698039 0 0 0 0 0.537255 0 0 0 0 0.192157 0 0 0 1 0"/><feBlend in2="effect2_innerShadow_18_14837" result="effect3_innerShadow_18_14837"/></filter></defs></svg>
